findly-builder/apps/searchassist/src/assets/icons/sidemenu/synonyms.svg

<svg width="10" height="12" viewBox="0 0 10 12" fill="none" xmlns="http://www.w3.org/2000/svg">
<path fill-rule="evenodd" clip-rule="evenodd" d="M4 8V6.994H6V8H7V6C7 5.93743 6.98826 5.87541 6.96538 5.81717L5.59038 2.31717C5.51521 2.12583 5.33058 2 5.125 2H4.875C4.66942 2 4.48479 2.12583 4.40962 2.31717L3.03462 5.81717C3.01174 5.87541 3 5.93743 3 6V8H4ZM5 3.54924L5.96044 5.994H4.03956L5 3.54924Z" fill="#202124"/>
<path fill-rule="evenodd" clip-rule="evenodd" d="M0 1.5C0 0.671858 0.671858 0 1.5 0H10V10H1.5C1.22414 10 1 10.2241 1 10.5C1 10.7759 1.22414 11 1.5 11H10V12H1.5C0.671858 12 0 11.3281 0 10.5V1.5ZM1 9.08542C1.1564 9.0301 1.3247 9 1.5 9H9V1H1.5C1.22414 1 1 1.22414 1 1.5V9.08542Z" fill="#202124"/>
</svg>

<svg width="10" height="12" fill="none" xmlns="http://www.w3.org/2000/svg"><path fill-rule="evenodd" clip-rule="evenodd" d="M4 8V6.994h2V8h1V6a.5.5 0 0 0-.035-.183l-1.375-3.5A.5.5 0 0 0 5.125 2h-.25a.5.5 0 0 0-.465.317l-1.375 3.5A.5.5 0 0 0 3 6v2h1Zm1-4.45.96 2.444H4.04L5 3.549Z" fill="#202124"/><path fill-rule="evenodd" clip-rule="evenodd" d="M0 1.5A1.5 1.5 0 0 1 1.5 0H10v10H1.5a.5.5 0 0 0 0 1H10v1H1.5A1.5 1.5 0 0 1 0 10.5v-9Zm1 7.585C1.156 9.03 1.325 9 1.5 9H9V1H1.5a.5.5 0 0 0-.5.5v7.585Z" fill="#202124"/></svg>
